src/assets/Imgs/light/project.svg

<svg fill="none" height="54" viewBox="0 0 54 54" width="54" xmlns="http://www.w3.org/2000/svg" xmlns:xlink="http://www.w3.org/1999/xlink"><linearGradient id="a" gradientUnits="userSpaceOnUse" x1="27" x2="27" y1="0" y2="54"><stop offset="0" stop-color="#ff7193" stop-opacity=".08"/><stop offset="1" stop-color="#5200ff" stop-opacity=".12"/></linearGradient><linearGradient id="b" gradientUnits="userSpaceOnUse" x1="13" x2="34" y1="40.5" y2="28"><stop offset=".0110715" stop-color="#ff2c78"/><stop offset="1" stop-color="#ff86c0" stop-opacity="0"/></linearGradient><linearGradient id="c" gradientUnits="userSpaceOnUse" x1="38.5" x2="22" y1="20.5" y2="34"><stop offset="0" stop-color="#ff4e85"/><stop offset="1" stop-color="#ea008c" stop-opacity=".13"/></linearGradient><circle cx="27" cy="27" fill="url(#a)" r="27"/><path d="m27.678 34.9571c.2748.0639.2999.4237.0323.5129l-1.58.52c-3.97 1.28-6.06.21-7.35-3.76l-1.28-3.95c-1.28-3.97-.22-6.07 3.75-7.35l.524-.1735c.4029-.1334.795.2707.6806.6793-.0567.2026-.1113.414-.1646.6342l-.98 4.19c-1.1 4.71.51 7.31 5.22 8.43z" fill="url(#b)"/><path d="m32.1702 18.21-1.67-.39c-3.34-.79-5.33-.14-6.5 2.28-.3.61-.54 1.35-.74 2.2l-.98 4.19c-.98 4.18.31 6.24 4.48 7.23l1.68.4c.58.14 1.12.23 1.62.27 3.12.3 4.78-1.16 5.62-4.77l.98-4.18c.98-4.18-.3-6.25-4.49-7.23zm-1.88 10.12c-.09.34-.39.56-.73.56-.06 0-.12-.01-.19-.02l-2.91-.74c-.4-.1-.64-.51-.54-.91s.51-.64.91-.54l2.91.74c.41.1.65.51.55.91zm2.93-3.38c-.09.34-.39.56-.73.56-.06 0-.12-.01-.19-.02l-4.85-1.23c-.4-.1-.64-.51-.54-.91s.51-.64.91-.54l4.85 1.23c.41.09.65.5.55.91z" fill="url(#c)"/></svg>

<svg width="54" height="54" viewBox="0 0 54 54" fill="none" xmlns="http://www.w3.org/2000/svg">
<g id="Group 888">
<circle id="Ellipse 1032" cx="27" cy="27" r="27" fill="url(#paint0_linear_192_3321)"/>
<g id="note-2">
<g id="vuesax/bold/note-2">
<path id="Vector" d="M27.678 34.9571C27.9528 35.021 27.9779 35.3808 27.7103 35.47V35.47L26.1303 35.99C22.1603 37.27 20.0703 36.2 18.7803 32.23L17.5003 28.28C16.2203 24.31 17.2803 22.21 21.2503 20.93L21.7743 20.7565C22.1772 20.6231 22.5693 21.0272 22.4549 21.4358C22.3982 21.6384 22.3436 21.8498 22.2903 22.07L21.3103 26.26C20.2103 30.97 21.8203 33.57 26.5303 34.69L27.678 34.9571Z" fill="url(#paint1_linear_192_3321)"/>
<path id="Vector_2" d="M32.1702 18.21L30.5002 17.82C27.1602 17.03 25.1702 17.68 24.0002 20.1C23.7002 20.71 23.4602 21.45 23.2602 22.3L22.2802 26.49C21.3002 30.67 22.5902 32.73 26.7602 33.72L28.4402 34.12C29.0202 34.26 29.5602 34.35 30.0602 34.39C33.1802 34.69 34.8402 33.23 35.6802 29.62L36.6602 25.44C37.6402 21.26 36.3602 19.19 32.1702 18.21ZM30.2902 28.33C30.2002 28.67 29.9002 28.89 29.5602 28.89C29.5002 28.89 29.4402 28.88 29.3702 28.87L26.4602 28.13C26.0602 28.03 25.8202 27.62 25.9202 27.22C26.0202 26.82 26.4302 26.58 26.8302 26.68L29.7402 27.42C30.1502 27.52 30.3902 27.93 30.2902 28.33ZM33.2202 24.95C33.1302 25.29 32.8302 25.51 32.4902 25.51C32.4302 25.51 32.3702 25.5 32.3002 25.49L27.4502 24.26C27.0502 24.16 26.8102 23.75 26.9102 23.35C27.0102 22.95 27.4202 22.71 27.8202 22.81L32.6702 24.04C33.0802 24.13 33.3202 24.54 33.2202 24.95Z" fill="url(#paint2_linear_192_3321)"/>
</g>
</g>
</g>
<defs>
<linearGradient id="paint0_linear_192_3321" x1="27" y1="0" x2="27" y2="54" gradientUnits="userSpaceOnUse">
<stop stop-color="#FF7193" stop-opacity="0.08"/>
<stop offset="1" stop-color="#5200FF" stop-opacity="0.12"/>
</linearGradient>
<linearGradient id="paint1_linear_192_3321" x1="13" y1="40.5" x2="34" y2="28" gradientUnits="userSpaceOnUse">
<stop offset="0.0110715" stop-color="#FF2C78"/>
<stop offset="1" stop-color="#FF86C0" stop-opacity="0"/>
</linearGradient>
<linearGradient id="paint2_linear_192_3321" x1="38.5" y1="20.5" x2="22" y2="34" gradientUnits="userSpaceOnUse">
<stop stop-color="#FF4E85"/>
<stop offset="1" stop-color="#EA008C" stop-opacity="0.13"/>
</linearGradient>
</defs>
</svg>
